Yaru++/mimetypes/48/text-x-php.svg

<svg height="48" viewBox="0 0 12.699375 12.699375" width="48" xmlns="http://www.w3.org/2000/svg" xmlns:xlink="http://www.w3.org/1999/xlink"><linearGradient id="a" gradientUnits="userSpaceOnUse" x1="6.350071" x2="6.350071" y1=".396856" y2="12.03795"><stop offset="0" stop-color="#fff"/><stop offset=".125" stop-color="#fff" stop-opacity=".098039"/><stop offset=".92500001" stop-color="#fff" stop-opacity=".098039"/><stop offset="1" stop-color="#fff" stop-opacity=".498039"/></linearGradient><linearGradient id="b" gradientTransform="matrix(0 -.02997086 .02997 0 -3.039509 13.625372)" gradientUnits="userSpaceOnUse" x1="459.03448" x2="35.310345" y1="419.23337" y2="207.36522"><stop offset="0" stop-color="#f2f2f2"/><stop offset="1" stop-color="#f9f9f9"/></linearGradient><path d="m4.1621982.39685624c-.5881133-.0089584-1.0513178.0135407-1.4323995.0775109-.3810845.0639688-.6929229.1839554-.9213477.4118407-.2284221.22788546-.3489841.53958346-.4123566.92082876-.0633725.3812456-.0757438.8453924-.07286 1.4349839v3.2399529 3.2415034c-.00286.5886852.00955 1.0525972.07286 1.4334332.063373.381246.1839345.692944.4123566.920829.2284248.227885.5402632.347873.9213477.411841.3810844.06397.8442174.07751 1.4323995.07751h4.3757443c.5881821 0 1.0510744-.01352 1.4313677-.07751.3802938-.064.6911798-.18439.9187598-.412357.227583-.227967.347434-.539443.411325-.920313.06389-.380868.07751-.844073.07751-1.4334332v-3.2415034-3.1748437l-2.8389625-2.84361416z" opacity=".1"/><path d="m4.1623596.39685624c-2.3346161 0-2.5858177.2397933-2.574375 2.57913196v3.2414149 3.2414147c-.011456 2.3393392.2397589 2.5791322 2.574375 2.5791322h4.3757787c2.3346157 0 2.5743747-.239767 2.5743747-2.5791322v-3.2414147l-.000177-3.1748438-2.6457031-2.64570306z" fill="none" opacity=".2" stroke="#000" stroke-width=".529141"/><path d="m4.1623596.39685624c-2.3346161 0-2.5858177.2397933-2.574375 2.57913196v3.2414149 3.2414147c-.011456 2.3393392.2397589 2.5791322 2.574375 2.5791322h4.3757787c2.3346157 0 2.5743747-.239767 2.5743747-2.5791322v-3.2414147l-.000177-3.1748438-2.6457031-2.64570306z" fill="url(#b)"/><path d="m6.2678578 5.2703631c-.1542842 0-.3005201.0177-.4387317.053057-.134997.035357-.2571544.081974-.3664378.1398307l.1253508.3472008c.2024968-.1092834.4098644-.1639304.6220021-.1639304.1671397 0 .2941308.043326.3809151.1301077.086784.083572.1301104.1928639.1301104.3278609 0 .083567-.019261.1607529-.057816.2314672-.035355.070709-.081975.1382195-.1398334.2025048-.057854.064285-.1188793.1284992-.183162.1927871-.064288.061068-.1254143.1285759-.1832731.2025048-.057856.070714-.106016.1478974-.1445851.2314672-.035357.083567-.053062.1767039-.053062.2795579 0 .07071.0064.138225.019234.202508h.3760545c-.0032-.01606-.00476-.03367-.00476-.05296v-.05306c0-.106071.020901-.200954.062674-.2845241.041786-.086784.093242-.1655099.1543107-.2362243.061071-.073926.1284779-.1446273.2024042-.2121245.073929-.0675.1414366-.1381983.2025047-.2121272.061074-.073926.1125297-.1526544.154316-.2362216.041781-.086787.062671-.1848606.062671-.2941413 0-.086787-.014419-.1767304-.043334-.2699411-.025718-.0964163-.0739809-.1832747-.1446953-.2604182-.070709-.0771407-.1654914-.1398121-.2844184-.1880274-.1157124-.0514272-.2652423-.077154-.4484519-.077154zm-1.2797875.9016609-2.0827848.8823261v.3856717l2.0827848.882324.1253508-.371298-1.71159-.7039132 1.71159-.7039132zm2.7131607 0-.1253535.3711974 1.7115874.7039132-1.7115874.7039132.1253535.371298 2.0828827-.882324v-.3856717zm-1.5105325 1.9333338c-.09964 0-.178368.03211-.2362216.09639-.057859.06428-.086774.139823-.086774.226605 0 .08679.028923.162322.086774.226607.057854.06428.1365818.0965.2362216.0965.099642 0 .1784712-.03221.2363274-.0965.057859-.06428.086774-.13982.086774-.226607 0-.08678-.028923-.162319-.086774-.226605-.057856-.06428-.1366849-.09639-.2363274-.09639z" fill="#8f76e4"/><path d="m4.1621982.39685624c-2.3346161 0-2.5858362.2397052-2.5743935 2.57904386v3.241503 3.2415027c-.011456 2.3393382.2397774 2.5790442 2.5743935 2.5790442h4.3757443c2.3346165 0 2.5743935-.239679 2.5743935-2.5790442v-3.2415027-3.1748438h-.26457v3.1748438 3.2415027c0 .5803222-.01624 1.0240722-.07028 1.3461042-.05402.322035-.139871.509123-.264055.633524-.124184.124388-.310701.2105-.6319709.264571-.321273.05406-.7643965.07028-1.3435224.07028h-4.3757395c-.5791259 0-1.0227997-.01619-1.3450728-.07028-.3222705-.0541-.5102953-.14009-.635072-.264571-.124774-.124488-.2105874-.311351-.2640518-.633005-.053467-.321654-.0684681-.765512-.0656266-1.3455892v-.000529-3.2420077-3.2420198-.0005291c-.00283-.5800778.01217-1.0239334.065627-1.3455882.053467-.3216548.1392778-.5085248.2640518-.63300516.124774-.1244803.3133201-.2104736.6355905-.2645703.3222705-.0540718.7654284-.070264 1.3445543-.070264h4.3044347v-.2645703z" fill="url(#a)" opacity=".4"/><path d="m11.112336 3.3071297v-.2645704l-2.6457031-2.64570306h-.2645703v1.11359066.042668.022917c0 1.5059289.201592 1.7381397 1.7109762 1.7307589z" opacity=".2"/><path d="m11.112336 3.0422207-2.6457031-2.64536506v.98127596.042668.022917c0 1.5059289.069402 1.6058846 1.5787861 1.5985039z" fill="#faf8f6"/></svg>

<?xml version="1.0" encoding="UTF-8" standalone="no"?>
<svg
   xmlns:dc="http://purl.org/dc/elements/1.1/"
   xmlns:cc="http://creativecommons.org/ns#"
   xmlns:rdf="http://www.w3.org/1999/02/22-rdf-syntax-ns#"
   xmlns:svg="http://www.w3.org/2000/svg"
   xmlns="http://www.w3.org/2000/svg"
   xmlns:xlink="http://www.w3.org/1999/xlink"
   xmlns:sodipodi="http://sodipodi.sourceforge.net/DTD/sodipodi-0.dtd"
   xmlns:inkscape="http://www.inkscape.org/namespaces/inkscape"
   height="48"
   viewBox="0 0 12.699375 12.699375"
   width="48"
   version="1.1"
   id="svg33"
   sodipodi:docname="text-x-php.svg"
   inkscape:version="0.92.5 (2060ec1f9f, 2020-04-08)">
  <metadata
     id="metadata39">
    <rdf:RDF>
      <cc:Work
         rdf:about="">
        <dc:format>image/svg+xml</dc:format>
        <dc:type
           rdf:resource="http://purl.org/dc/dcmitype/StillImage" />
      </cc:Work>
    </rdf:RDF>
  </metadata>
  <defs
     id="defs37">
    <linearGradient
       gradientTransform="matrix(0.26457031,0,0,0.26457031,-84.662116,-16.006503)"
       inkscape:collect="always"
       xlink:href="#linearGradient927"
       id="linearGradient1004"
       x1="344"
       y1="62"
       x2="344"
       y2="106"
       gradientUnits="userSpaceOnUse" />
    <linearGradient
       inkscape:collect="always"
       id="linearGradient927">
      <stop
         style="stop-color:#ffffff;stop-opacity:1;"
         offset="0"
         id="stop923" />
      <stop
         id="stop933"
         offset="0.125"
         style="stop-color:#ffffff;stop-opacity:0.09803922" />
      <stop
         id="stop931"
         offset="0.92500001"
         style="stop-color:#ffffff;stop-opacity:0.09803922" />
      <stop
         style="stop-color:#ffffff;stop-opacity:0.49803922"
         offset="1"
         id="stop925" />
    </linearGradient>
    <linearGradient
       inkscape:collect="always"
       xlink:href="#linearGradient4338"
       id="linearGradient1024"
       gradientUnits="userSpaceOnUse"
       gradientTransform="matrix(0,-0.02997086,0.02997,0,-3.0395088,13.625372)"
       x1="459.03448"
       y1="419.23337"
       x2="35.310345"
       y2="207.36522" />
    <linearGradient
       inkscape:collect="always"
       id="linearGradient4338">
      <stop
         style="stop-color:#f2f2f2;stop-opacity:1"
         offset="0"
         id="stop4340" />
      <stop
         style="stop-color:#f9f9f9;stop-opacity:1"
         offset="1"
         id="stop4342" />
    </linearGradient>
  </defs>
  <sodipodi:namedview
     pagecolor="#ffffff"
     bordercolor="#666666"
     borderopacity="1"
     objecttolerance="10"
     gridtolerance="10"
     guidetolerance="10"
     inkscape:pageopacity="0"
     inkscape:pageshadow="2"
     inkscape:window-width="834"
     inkscape:window-height="480"
     id="namedview35"
     showgrid="false"
     inkscape:zoom="4.9166667"
     inkscape:cx="24"
     inkscape:cy="24"
     inkscape:window-x="0"
     inkscape:window-y="28"
     inkscape:window-maximized="0"
     inkscape:current-layer="svg33" />
  <linearGradient
     id="a"
     gradientUnits="userSpaceOnUse"
     x1="344"
     x2="344"
     y1="62"
     y2="106">
    <stop
       offset="0"
       stop-color="#fff"
       id="stop2" />
    <stop
       offset=".125"
       stop-color="#fff"
       stop-opacity=".098039"
       id="stop4" />
    <stop
       offset=".92500001"
       stop-color="#fff"
       stop-opacity=".098039"
       id="stop6" />
    <stop
       offset="1"
       stop-color="#fff"
       stop-opacity=".498039"
       id="stop8" />
  </linearGradient>
  <clipPath
     id="b">
    <path
       d="m335.73108 62c-8.82418 0-9.77365.90635-9.7304 9.74838v12.25162 12.25162c-.0433 8.84203.90622 9.74838 9.7304 9.74838h16.53919c8.82418 0 9.7304-.90625 9.7304-9.74838v-12.25162-12.25162c0-8.84213-.90622-9.74838-9.7304-9.74838z"
       id="path11" />
  </clipPath>
  <linearGradient
     id="c"
     gradientTransform="matrix(0 -.02997086 .02997 0 -3.039509 13.625372)"
     gradientUnits="userSpaceOnUse"
     x1="459.03448"
     x2="35.310345"
     y1="419.23337"
     y2="207.36522">
    <stop
       offset="0"
       stop-color="#f2f2f2"
       id="stop14" />
    <stop
       offset="1"
       stop-color="#f9f9f9"
       id="stop16" />
  </linearGradient>
  <path
     style="color:#000000;font-style:normal;font-variant:normal;font-weight:normal;font-stretch:normal;font-size:medium;line-height:normal;font-family:sans-serif;font-variant-ligatures:normal;font-variant-position:normal;font-variant-caps:normal;font-variant-numeric:normal;font-variant-alternates:normal;font-feature-settings:normal;text-indent:0;text-align:start;text-decoration:none;text-decoration-line:none;text-decoration-style:solid;text-decoration-color:#000000;letter-spacing:normal;word-spacing:normal;text-transform:none;writing-mode:lr-tb;direction:ltr;text-orientation:mixed;dominant-baseline:auto;baseline-shift:baseline;text-anchor:start;white-space:normal;shape-padding:0;clip-rule:nonzero;display:inline;overflow:visible;visibility:visible;opacity:0.1;isolation:auto;mix-blend-mode:normal;color-interpolation:sRGB;color-interpolation-filters:linearRGB;solid-color:#000000;solid-opacity:1;vector-effect:none;fill:#000000;fill-opacity:1;fill-rule:nonzero;stroke:none;stroke-width:0.52914065;stroke-linecap:butt;stroke-linejoin:miter;stroke-miterlimit:4;stroke-dasharray:none;stroke-dashoffset:0;stroke-opacity:1;marker:none;color-rendering:auto;image-rendering:auto;shape-rendering:auto;text-rendering:auto;enable-background:accumulate"
     d="M 4.1621982,0.39685624 C 3.5740849,0.38789784 3.1108804,0.41039694 2.7297987,0.47436714 2.3487142,0.53833594 2.0368758,0.65832254 1.808451,0.88620784 1.5800289,1.1140933 1.4594669,1.4257913 1.3960944,1.8070366 1.3327219,2.1882822 1.3203506,2.652429 1.3232344,3.2420205 v 3.2399529 3.2415034 c -0.00286,0.5886852 0.00955,1.0525972 0.07286,1.4334332 0.063373,0.381246 0.1839345,0.692944 0.4123566,0.920829 0.2284248,0.227885 0.5402632,0.347873 0.9213477,0.411841 0.3810844,0.06397 0.8442174,0.07751 1.4323995,0.07751 h 4.3757443 c 0.5881821,0 1.0510744,-0.01352 1.4313677,-0.07751 0.3802938,-0.064 0.6911798,-0.18439 0.9187598,-0.412357 0.227583,-0.227967 0.347434,-0.539443 0.411325,-0.920313 0.06389,-0.380868 0.07751,-0.844073 0.07751,-1.4334332 V 6.4819734 3.3071297 L 8.5379425,0.46351554 Z"
     id="path1020"
     inkscape:connector-curvature="0"
     sodipodi:nodetypes="sccsccccccsscccscccs" />
  <path
     style="color:#000000;display:inline;overflow:visible;visibility:visible;opacity:0.2;fill:none;fill-opacity:1;fill-rule:nonzero;stroke:#000000;stroke-width:0.52914065;stroke-miterlimit:4;stroke-dasharray:none;stroke-opacity:1;marker:none;enable-background:accumulate"
     d="m 4.1623596,0.39685624 c -2.3346161,0 -2.5858177,0.2397933 -2.574375,2.57913196 V 6.2174031 9.4588178 C 1.5765286,11.798157 1.8277435,12.03795 4.1623596,12.03795 h 4.3757787 c 2.3346157,0 2.5743747,-0.239767 2.5743747,-2.5791322 V 6.2174031 L 11.112336,3.0425593 8.4666329,0.39685624 Z"
     id="path958"
     inkscape:connector-curvature="0"
     sodipodi:nodetypes="scccssscccs" />
  <path
     style="color:#000000;display:inline;overflow:visible;visibility:visible;fill:url(#linearGradient1024);fill-opacity:1;fill-rule:nonzero;stroke:none;stroke-width:0.26457033;marker:none;enable-background:accumulate"
     d="m 4.1623596,0.39685624 c -2.3346161,0 -2.5858177,0.2397933 -2.574375,2.57913196 V 6.2174031 9.4588178 C 1.5765286,11.798157 1.8277435,12.03795 4.1623596,12.03795 h 4.3757787 c 2.3346157,0 2.5743747,-0.239767 2.5743747,-2.5791322 V 6.2174031 L 11.112336,3.0425593 8.4666329,0.39685624 Z"
     id="path964"
     inkscape:connector-curvature="0"
     sodipodi:nodetypes="scccssscccs" />
  <path
     inkscape:connector-curvature="0"
     id="path994"
     d="m 6.2678578,5.2703631 c -0.1542842,0 -0.3005201,0.0177 -0.4387317,0.053057 -0.134997,0.035357 -0.2571544,0.081974 -0.3664378,0.1398307 L 5.5880391,5.8104516 C 5.7905359,5.7011682 5.9979035,5.6465212 6.2100412,5.6465212 c 0.1671397,0 0.2941308,0.043326 0.3809151,0.1301077 0.086784,0.083572 0.1301104,0.1928639 0.1301104,0.3278609 0,0.083567 -0.019261,0.1607529 -0.057816,0.2314672 C 6.6278957,6.406666 6.5812757,6.4741765 6.5234173,6.5384618 6.4655633,6.6027468 6.404538,6.666961 6.3402553,6.7312489 6.2759673,6.7923169 6.214841,6.8598248 6.1569822,6.9337537 c -0.057856,0.070714 -0.106016,0.1478974 -0.1445851,0.2314672 -0.035357,0.083567 -0.053062,0.1767039 -0.053062,0.2795579 0,0.07071 0.0064,0.138225 0.019234,0.202508 h 0.3760545 c -0.0032,-0.01606 -0.00476,-0.03367 -0.00476,-0.05296 v -0.05306 c 0,-0.106071 0.020901,-0.200954 0.062674,-0.2845241 0.041786,-0.086784 0.093242,-0.1655099 0.1543107,-0.2362243 0.061071,-0.073926 0.1284779,-0.1446273 0.2024042,-0.2121245 0.073929,-0.0675 0.1414366,-0.1381983 0.2025047,-0.2121272 0.061074,-0.073926 0.1125297,-0.1526544 0.154316,-0.2362216 0.041781,-0.086787 0.062671,-0.1848606 0.062671,-0.2941413 0,-0.086787 -0.014419,-0.1767304 -0.043334,-0.2699411 C 7.1196922,5.6995464 7.0714293,5.612688 7.0007149,5.5355445 6.9300059,5.4584038 6.8352235,5.3957324 6.7162965,5.3475171 6.6005841,5.2960899 6.4510542,5.2703631 6.2678446,5.2703631 Z M 4.9880703,6.172024 2.9052855,7.0543501 v 0.3856717 l 2.0827848,0.882324 0.1253508,-0.371298 -1.71159,-0.7039132 1.71159,-0.7039132 z m 2.7131607,0 L 7.5758775,6.5432214 9.2874649,7.2471346 7.5758775,7.9510478 7.701231,8.3223458 9.7841137,7.4400218 V 7.0543501 Z M 6.1906985,8.1053578 c -0.09964,0 -0.178368,0.03211 -0.2362216,0.09639 -0.057859,0.06428 -0.086774,0.139823 -0.086774,0.226605 0,0.08679 0.028923,0.162322 0.086774,0.226607 0.057854,0.06428 0.1365818,0.0965 0.2362216,0.0965 0.099642,0 0.1784712,-0.03221 0.2363274,-0.0965 0.057859,-0.06428 0.086774,-0.13982 0.086774,-0.226607 0,-0.08678 -0.028923,-0.162319 -0.086774,-0.226605 -0.057856,-0.06428 -0.1366849,-0.09639 -0.2363274,-0.09639 z"
     style="font-style:normal;font-variant:normal;font-weight:normal;font-stretch:normal;font-size:6.00915384px;line-height:0%;font-family:Ubuntu;-inkscape-font-specification:'Ubuntu, Normal';text-align:start;letter-spacing:0px;word-spacing:0px;writing-mode:lr-tb;text-anchor:start;display:inline;fill:#8f76e4;fill-opacity:1;stroke:none;stroke-width:0.26457033px;stroke-linecap:butt;stroke-linejoin:miter;stroke-opacity:1;enable-background:new" />
  <path
     style="color:#000000;font-style:normal;font-variant:normal;font-weight:normal;font-stretch:normal;font-size:medium;line-height:normal;font-family:sans-serif;font-variant-ligatures:normal;font-variant-position:normal;font-variant-caps:normal;font-variant-numeric:normal;font-variant-alternates:normal;font-feature-settings:normal;text-indent:0;text-align:start;text-decoration:none;text-decoration-line:none;text-decoration-style:solid;text-decoration-color:#000000;letter-spacing:normal;word-spacing:normal;text-transform:none;writing-mode:lr-tb;direction:ltr;text-orientation:mixed;dominant-baseline:auto;baseline-shift:baseline;text-anchor:start;white-space:normal;shape-padding:0;clip-rule:nonzero;display:inline;overflow:visible;visibility:visible;opacity:0.4;isolation:auto;mix-blend-mode:normal;color-interpolation:sRGB;color-interpolation-filters:linearRGB;solid-color:#000000;solid-opacity:1;vector-effect:none;fill:url(#linearGradient1004);fill-opacity:1;fill-rule:nonzero;stroke:none;stroke-width:0.52914065;stroke-linecap:butt;stroke-linejoin:miter;stroke-miterlimit:4;stroke-dasharray:none;stroke-dashoffset:0;stroke-opacity:1;marker:none;color-rendering:auto;image-rendering:auto;shape-rendering:auto;text-rendering:auto;enable-background:accumulate"
     clip-path="none"
     d="m 4.1621982,0.39685624 c -2.3346161,0 -2.5858362,0.2397052 -2.5743935,2.57904386 v 3.241503 3.2415027 C 1.5763487,11.798244 1.8275821,12.03795 4.1621982,12.03795 h 4.3757443 c 2.3346165,0 2.5743935,-0.239679 2.5743935,-2.5790442 V 6.2174031 3.0425593 h -0.26457 v 3.1748438 3.2415027 c 0,0.5803222 -0.01624,1.0240722 -0.07028,1.3461042 -0.05402,0.322035 -0.139871,0.509123 -0.264055,0.633524 -0.124184,0.124388 -0.310701,0.2105 -0.6319709,0.264571 -0.321273,0.05406 -0.7643965,0.07028 -1.3435224,0.07028 H 4.1621982 c -0.5791259,0 -1.0227997,-0.01619 -1.3450728,-0.07028 -0.3222705,-0.0541 -0.5102953,-0.14009 -0.635072,-0.264571 C 2.0572794,11.314046 1.971466,11.127183 1.9180016,10.805529 1.8645346,10.483875 1.8495335,10.040017 1.852375,9.4599398 V 9.4594108 6.2174031 2.9753833 2.9748542 c -0.00283,-0.5800778 0.01217,-1.0239334 0.065627,-1.3455882 0.053467,-0.3216548 0.1392778,-0.5085248 0.2640518,-0.63300516 0.124774,-0.1244803 0.3133201,-0.2104736 0.6355905,-0.2645703 0.3222705,-0.0540718 0.7654284,-0.070264 1.3445543,-0.070264 h 4.3044347 v -0.2645703 z"
     id="path990"
     inkscape:connector-curvature="0" />
  <path
     inkscape:connector-curvature="0"
     style="color:#000000;display:inline;overflow:visible;visibility:visible;opacity:0.2;fill:#000000;fill-opacity:1;fill-rule:nonzero;stroke:none;stroke-width:0.06614863;marker:none;enable-background:accumulate"
     d="M 11.112336,3.3071297 V 3.0425593 L 8.4666329,0.39685624 H 8.2020626 v 1.11359066 0.042668 0.022917 c 0,1.5059289 0.201592,1.7381397 1.7109762,1.7307589 z"
     id="rect4158-0-3-62-2"
     sodipodi:nodetypes="ccccccscc" />
  <path
     inkscape:connector-curvature="0"
     style="color:#000000;display:inline;overflow:visible;visibility:visible;fill:#faf8f6;fill-opacity:1;fill-rule:nonzero;stroke:none;stroke-width:0.06614863;marker:none;enable-background:accumulate"
     d="M 11.112336,3.0422207 8.4666329,0.39685564 v 0.98127596 0.042668 0.022917 c 0,1.5059289 0.069402,1.6058846 1.5787861,1.5985039 z"
     id="rect4158-0-3-62"
     sodipodi:nodetypes="ccccscc" />
</svg>
